public/images/tv.svg

<svg fill="none" height="24" viewBox="0 0 24 24" width="24" xmlns="http://www.w3.org/2000/svg"><path d="m15.0938 4.48828 2.5781-2.57812c.4219-.42188.4219-1.125004 0-1.546879-.4688-.46875-1.1719-.46875-1.5938 0l-4.0781 4.031249-4.07812-4.031249c-.46876-.46875-1.17188-.46875-1.59376 0-.46874.421875-.46874 1.124999 0 1.546879l2.57813 2.57812h-5.90625c-1.6875 0-3 1.35938-3 3v13.45312c0 1.7344 1.3125 3.0469 3 3.0469h18c1.6406 0 3-1.3125 3-2.9531v-13.54692c0-1.64062-1.3594-2.95312-3-2.95312zm5.9062 5.25c.6094 0 1.125.51562 1.125 1.12502s-.5156 1.125-1.125 1.125c-.6562 0-1.125-.5156-1.125-1.125s.4688-1.12502 1.125-1.12502zm-3 8.25002c0 1.6875-1.3594 3-3 3h-9c-1.6875 0-3-1.3125-3-3v-7.5c0-1.64064 1.3125-3.00002 3-3.00002l8.9531.04688c1.6407 0 3 1.3125 3 2.95314v7.5zm1.875-3.375c0-.6094.4688-1.125 1.125-1.125.6094 0 1.125.5156 1.125 1.125 0 .6562-.5156 1.125-1.125 1.125-.6562 0-1.125-.4688-1.125-1.125z" fill="#a37a56"/></svg>

<svg width="24" height="24" viewBox="0 0 24 24" fill="none" xmlns="http://www.w3.org/2000/svg">
<path d="M15.0938 4.48828L17.6719 1.91016C18.0938 1.48828 18.0938 0.785156 17.6719 0.363281C17.2031 -0.105469 16.5 -0.105469 16.0781 0.363281L12 4.39453L7.92188 0.363281C7.45312 -0.105469 6.75 -0.105469 6.32812 0.363281C5.85938 0.785156 5.85938 1.48828 6.32812 1.91016L8.90625 4.48828H3C1.3125 4.48828 0 5.84766 0 7.48828V20.9414C0 22.6758 1.3125 23.9883 3 23.9883H21C22.6406 23.9883 24 22.6758 24 21.0352V7.48828C24 5.84766 22.6406 4.53516 21 4.53516L15.0938 4.48828ZM21 9.73828C21.6094 9.73828 22.125 10.2539 22.125 10.8633C22.125 11.4727 21.6094 11.9883 21 11.9883C20.3438 11.9883 19.875 11.4727 19.875 10.8633C19.875 10.2539 20.3438 9.73828 21 9.73828ZM18 17.9883C18 19.6758 16.6406 20.9883 15 20.9883H6C4.3125 20.9883 3 19.6758 3 17.9883V10.4883C3 8.84766 4.3125 7.48828 6 7.48828L14.9531 7.53516C16.5938 7.53516 17.9531 8.84766 17.9531 10.4883V17.9883H18ZM19.875 14.6133C19.875 14.0039 20.3438 13.4883 21 13.4883C21.6094 13.4883 22.125 14.0039 22.125 14.6133C22.125 15.2695 21.6094 15.7383 21 15.7383C20.3438 15.7383 19.875 15.2695 19.875 14.6133Z" fill="#A37A56"/>
</svg>
